X:10
T:Margaret MacPhee's Style
R:jig
C:Paul S. Cranford
O:Cape Breton Island
S:http://www.cranfordpub.com
D:currently unrecorded
B:currently unpublished in book form
Z:psc, (updated 9/9/06)
H:                                                        copyrights Cranford Publications, SOCAN
L:1/8
Q:300
M:6/8
K:A
B|cBA FAF|EFG A2 B|cae fad|ecA BAB|
cBA FAF|EFG A2 B|cae fga|ecA A2 :|
|:B|cae fda|eac Bcd|cae fda|ecA BAB|
[1cae fda|ecA BAF|EcA def|ecA A2 :|
[2cBA FAF|ECA, B,CD|EcA def|ecA A2|]
